X: 1738
T: My Dreams are Getting Better All the Time
C:Vic Mizzy, (1916 - 2009), 1945
B: australian traditional tunes wiki
M:4/4
L:1/8
R: Schottische
Q: 1/4=100
K:D
V:1 
A2|:"D"(3fef d>A F>A (3dcd|"G"B2 g>f "Em"e3d|"A7"c>e c>A "G"B>g B>c|1"D"A6 "A7"A2:|2"D"d6d2||
"A7"e>e e>d e>e e>d|"G"(3BAB B>A "Em"B3A|"A7"(3fef e2 d3"E7"B|"A"c>B c>d e2 "A7"a2|
"D"(3fef d>A F>A (3dcd|"G"B2 g>f "Em"e3d|"A7"c>e c>A "G"B>g B>c|"D"d6||
% abcbook-tune_id 6342d53a6a1ccd3db482c326


% abcbook-boost 0
% abcbook-tablature 
% abcbook-transpose 
% abcbook-lastupdated 1665324381070
% abcbook-soundfonts 
% abcbook-repeats 1
% NFF Book 2016

